X: 4
T: Good For The Tongue
R: hornpipe
M: 4/4
L: 1/8
K: Gmaj
|:D>F|G2 B>c d>GF>G|e2 f2 g>GF>G|E>cD>B c>AF>G|(3ABA (3cBA G>FE>D|
G2 B>c d2 F>G|e2 f2 g>GF>G|e>cD>B c>DF>G|A2 G2 G2:|
|:B>c|d2 F>G e2 F>G|g2 (3efe d>BG>B|c2 (3ded c2 (3BAG|F>d^c>d D2 E>F|
G2 (3ABc d2 F>G|e2 f2 g>GF>G|e2 d>B (3cdc E>G|(3ABA G2 G2:|

